X:11
T:James Kelly on the Fiddle 
C:Terence "Cuz" Teahan
B:Terry "Cuz" Teahan "Sliabh Luachra on Parade" 1980
Z:Patrick Cavanagh
M:6/8
L:1/8
R:Jig
K:G
| DGA Bde | ded dBA | GAB deB | dBA GED | 
BGG AGE | deg edB | ABG BeB | dfa ged :| 
| BdB AGA | BAG EGD | EGG Bee | Add GED | 
gfe agf | ege dBd | FGD EFG | AGF GED :|| 

